X:122
T:Eklundapolska nr 3
C:Viksta-Lasse
R:Polska
O:Uppland
Z:Erik Ronström 2008-01-31
M:3/4
L:1/16
K:G
g2fg b2g2 d2B2|cBcd egec A2c2|B2AB cdcA BcBG|A2d2 d8|
g2fg b2g2 d2B2|cBcd egec A2c2|B2AB cdcA BcBG|ABAF G8:|
|:B3B c2c2 B2B2|A2d2 d8|B3B c2c2 B2B2|ABAF D8|
B3B c2c2 B2B2|A2d2 d8|G2AB cdcA BcBG|ABAF G8:|
(:musicend:)

Rytmiken och fraseringen i andra reprisen brukar varieras mellan punktering med stora "lyft" och jämna, rullstråksartade åttondelar:

Med "lyft":
(:music:)
